X: 6
T: Meril\"aisen masurkka
R: mazurka
O: Finland
M: 3/4
L: 1/8
K: C
|: "C"E>G GE Gc | "G7"B>A G2 G2 | g>g gG Bd |1,3 "C"e>d c2 c2 :|2,4 "C"c2 c2 z2 :|
|: "F"a>g ff f2 | "C"g>f ee e2 | "G7"d>B GG gB |1,3 "C"c>B cd ef :|2,4 "C"c2 c2 z2 :|
|: "C"e2 {fe}d2 c2 | G>G GE Gc | "F"f2 e2 {fe}d2 | "Dm"A6 \
| "F"f2 e2 {fe}d2 | "Dm"A>A A2 A2 | "G7"G>G B3 A | "C"A>G E2 E2 |
|  "C"e2 {fe}d2 c2 | G>G GE Gc | "F"f2 e2 {fe}d2 | "Dm"A6 \
| "F"A>c BA "G"GE | "C"C3 E F^F | "G7"G>G AA B2 | "C"c2 c2 z2 :|
%%sep 1 1 10cm
